X:1
T:Woman Belly Full o'Hair
M:4/4
L:1/8
K:G
 BB| dd dd BB G2| AA AB c2 AA| cc cc AA F2| GG GA B2| BB| dd dd dd d2|\
 ee ee e2 ee| d2 dd c2 d2| GG GG G2||

